X: 277
%
U:~=!turn!
T: Kiss me Sweetly
C:
O:Scotland
B:Keith Norman MacDonald : "The Skye collection of the best reels & strathspeys extant" : 1887
Z:Ralph Palmer
R:Reel
M:C|
L:1/8
K:C
g) | (a/g/f/e/) (cg) egcg | (a/g/f/e/) (cg) eddg | (a/g/f/e/) (cg) egde | c>AGE C/C/C C :|
F | (E/F/G) (cG) AGcG | (E/F/G) (ce) dDDF | (EF/G/) (cG) EGca | gede c/c/c (cG) |
(E/F/G) (cG) AGcG | (E/F/G) (ce) eDDF | (E/F/G) (cG) EGca | gede c/c/c (c |]


